packages/tokens/icons/computer/size16Px.svg

<svg viewBox="0 0 16 16" fill="none" xmlns="http://www.w3.org/2000/svg" width="1em" height="1em"><path d="M7.99988 11.5L7.99988 14" stroke="currentColor"/><path d="M5.5 14.5H10.5" stroke="currentColor" stroke-linecap="round"/><path d="M2.5 3.5L13.5 3.5C14.0523 3.5 14.5 3.94772 14.5 4.5L14.5 10.5C14.5 11.0523 14.0523 11.5 13.5 11.5L2.5 11.5C1.94772 11.5 1.5 11.0523 1.5 10.5L1.5 4.5C1.5 3.94772 1.94772 3.5 2.5 3.5Z" stroke="currentColor" stroke-linecap="round"/></svg>

<svg xmlns="http://www.w3.org/2000/svg" fill="none" viewBox="0 0 16 16" width="1em" height="1em"><path stroke="currentColor" d="M8 11.5V14"/><path stroke="currentColor" stroke-linecap="round" d="M5.5 14.5h5m-8-11h11a1 1 0 0 1 1 1v6a1 1 0 0 1-1 1h-11a1 1 0 0 1-1-1v-6a1 1 0 0 1 1-1Z"/></svg>
